static/img/pause.svg

<?xml version="1.0" encoding="UTF-8"?> <svg xmlns="http://www.w3.org/2000/svg" width="24" height="24" viewBox="0 0 24 25" fill="none"> <circle cx="12" cy="12.0347" r="11.6747" stroke="white" stroke-width="0.650521"></circle> <path d="M13.25 9.29167V14.7083C13.25 14.9019 13.25 14.9987 13.266 15.0792C13.3317 15.4098 13.59 15.6684 13.9205 15.7341C14.001 15.7501 14.0978 15.7501 14.2914 15.7501C14.485 15.7501 14.5822 15.7501 14.6627 15.7341C14.9933 15.6684 15.2517 15.4098 15.3174 15.0792C15.3333 14.9995 15.3333 14.9036 15.3333 14.7134V9.28657C15.3333 9.09635 15.3333 9.00036 15.3174 8.92057C15.2517 8.59 14.9931 8.33177 14.6625 8.26601C14.582 8.25 14.4852 8.25 14.2916 8.25C14.098 8.25 14.001 8.25 13.9205 8.26601C13.59 8.33177 13.3317 8.59 13.266 8.92057C13.25 9.00107 13.25 9.09806 13.25 9.29167Z" fill="white"></path> <path d="M8.66663 9.29167V14.7083C8.66663 14.9019 8.66663 14.9987 8.68264 15.0792C8.74839 15.4098 9.00662 15.6684 9.3372 15.7341C9.4177 15.7501 9.5145 15.7501 9.70811 15.7501C9.90171 15.7501 9.99889 15.7501 10.0794 15.7341C10.41 15.6684 10.6683 15.4098 10.7341 15.0792C10.75 14.9995 10.75 14.9036 10.75 14.7134V9.28657C10.75 9.09635 10.75 9.00036 10.7341 8.92057C10.6683 8.59 10.4098 8.33177 10.0792 8.26601C9.9987 8.25 9.9019 8.25 9.70829 8.25C9.51469 8.25 9.4177 8.25 9.3372 8.26601C9.00662 8.33177 8.74839 8.59 8.68264 8.92057C8.66663 9.00107 8.66663 9.09806 8.66663 9.29167Z" fill="white"></path> </svg>

<svg xmlns="http://www.w3.org/2000/svg" width="24" height="24" fill="none" viewBox="0 0 24 25"><circle cx="12" cy="12.035" r="11.675" stroke="#fff" stroke-width=".651"/><path fill="#fff" d="M13.25 9.292v5.416c0 .194 0 .29.016.371.066.33.324.59.655.655.08.016.177.016.37.016.194 0 .291 0 .372-.016a.83.83 0 0 0 .654-.655c.016-.08.016-.175.016-.366V9.287c0-.19 0-.287-.016-.366a.83.83 0 0 0-.655-.655c-.08-.016-.177-.016-.37-.016-.194 0-.291 0-.371.016a.83.83 0 0 0-.655.655c-.016.08-.016.177-.016.37M8.667 9.292v5.416c0 .194 0 .29.016.371.065.33.324.59.654.655.08.016.178.016.371.016.194 0 .29 0 .371-.016a.83.83 0 0 0 .655-.655c.016-.08.016-.175.016-.366V9.287c0-.19 0-.287-.016-.366a.83.83 0 0 0-.655-.655c-.08-.016-.177-.016-.37-.016-.194 0-.291 0-.372.016a.83.83 0 0 0-.654.655c-.016.08-.016.177-.016.37"/></svg>
